X:1
T:Title
%%score { ( 1 3 ) | ( 2 4 ) }
L:1/8
M:4/4
K:Ab
V:1 treble nm="Grand Piano"
V:3 treble 
V:2 bass 
V:4 bass 
V:1
 z4 z2[Q:1/4=100] [A,C]>[B,D] | [CE]>[_C=D] [=CE]>[_DF] [CE]2 [EA]>B | c>_c =c>d c2 e2 | %3
 [Ge]3 [GB] [Gc]2 [Gd]2 | c6[K:bass] z2[K:treble] | [CE]>[_C=D] [=CE]>[_DF] [CE]2 [EA]>B | %6
 c>_c =c>d c2 e2 | [Ge]3 [Fd] [Ec]2 [DB]2 |[M:3/4] [CA]6 |[M:1/4] [CE]2 | %10
[M:4/4] [Ec]3 [Ec] [Fd]2 [Ec]2 | B6 z2 | B3 B c2 B2 | A6 z2 | F>=E F>[FA] [Fd]2 [FA]>[EB] | %15
[M:5/4] [Ec]>B c>d e3 [Fd]3 |[M:4/4] [EAc]3 [FAd] [EGc]2 [DGB]2 |[M:3/4] [A,CEA]6 |] %18
V:2
 z4 z2 [A,,E,]>[A,,E,] | [A,,A,]>[B,,A,] [A,,A,]>[A,,A,] [A,,A,]2 [C,A,]>[E,G,E] | %2
 [A,E]>[A,=D] [A,E]>[A,F] [A,E]2 [A,CA]2 | [E,B,]3 [E,E] [E,E]2 [E,B,]2 | %4
 [A,E]6 [A,,E,A,]>[A,,E,] | [A,,A,]>[A,,A,] [A,,A,]>[A,,A,] [A,,A,]2 [C,A,]>[E,G,E] | %6
 [A,E]>[A,=D] [A,E]>[A,F] [A,E]2 [A,CA]2 | [E,B,]3 [E,G,] [E,A,]2 [E,G,]2 |[M:3/4] [A,,A,]6 | %9
[M:1/4] [A,,A,]2 |[M:4/4] [A,,A,]3 [A,,A,] [A,,A,]2 [A,,A,]2 | %11
 [E,G,D]>[E,G,] [E,G,]>[E,G,] [E,G,]2 [E,G,D]2 | [E,G,D]3 [E,G,D] [E,A,E]2 [E,D]2 | %13
 E,>E, E,>E, E,2 [A,,E,]>[C,A,] | [D,A,D]>[D,A,D] [D,A,D]>[D,A,] [D,A,]2 [D,D]>[D,A,] | %15
[M:5/4] [A,,A,]>[E,G,E] [A,E]>[A,B,E] [A,CE]3 D,3 |[M:4/4] E,3 E, E,2 E,2 |[M:3/4] A,,6 |] %18
V:3
 x8 | x8 | x8 | x8 | z z/[K:bass] E,/ C,>E, A,,2 C>[K:treble][B,D] | x8 | x8 | x8 |[M:3/4] x6 | %9
[M:1/4] x2 |[M:4/4] x8 | z z/ D/ D>D D2 E2 | x8 | C>C C>C C2 [CA]>[EG] | x8 |[M:5/4] x10 | %16
[M:4/4] x8 |[M:3/4] x6 |] %18
V:4
 x8 | x8 | x8 | x8 | x8 | x8 | x8 | x8 |[M:3/4] x6 |[M:1/4] x2 |[M:4/4] x8 | x8 | x8 | A,,6 z2 | %14
 x8 |[M:5/4] x10 |[M:4/4] x8 |[M:3/4] x6 |] %18

